X: 030126
T: Camel's Hump 
N: 141
C: BB
R: reel
Q: 1/8=380
M: 4/4
L: 1/8
K: C
"E"B,E E2 "E"B,E^GE|B,E^GA "Bb"_BAFD|"E"B,E E2 "E"B,E^GA|"Bb"_BAFD "E"E2 ED|
"E"B,E E2 "E"B,E^GE|B,E^GA "Bb"_BAFD|"E"FEEF ^GEFG|"Bb"_BAFD "E"E4 :|
"E"eB B2 ^gB B2|"Am"(3c=BA eA fAeA|"E"eBcB ^gBcB|"Am"afef e2 fe|
"E"eB B2 ^gB (3BAB|"Am"cAeA fAeA|"E"B^G G2 "F"AF F2|"Bdim"BA^GF "E"E4 :|
